public/enter-tower-bt.svg

<svg width="267" height="49" viewBox="0 0 267 49" fill="none" xmlns="http://www.w3.org/2000/svg">
<rect width="161" height="49" rx="24" fill="white"/>
<path d="M27.18 32C26.6067 32 26.14 31.8267 25.78 31.48C25.42 31.1333 25.24 30.68 25.24 30.12V18H35.92V20.4H28V23.64H35.32V26.04H28V29.6H35.92V32H27.18ZM37.7186 22.02H40.2386V23.22C40.5319 22.8067 40.9119 22.48 41.3786 22.24C41.8453 21.9867 42.3119 21.86 42.7786 21.86H43.9786C45.0453 21.86 45.8986 22.1933 46.5386 22.86C47.1919 23.5267 47.5186 24.4067 47.5186 25.5V32H44.7986V25.6C44.7986 25.1867 44.6853 24.8533 44.4586 24.6C44.2453 24.3467 43.9653 24.22 43.6186 24.22H42.4186C41.9519 24.22 41.5319 24.3933 41.1586 24.74C40.7986 25.0733 40.5586 25.5133 40.4386 26.06V32H37.7186V22.02ZM54.0708 32C52.8974 32 52.0374 31.7333 51.4908 31.2C50.9441 30.6667 50.6708 29.84 50.6708 28.72V24.34H48.9108V22.02H50.7508V19H53.3908V22.02H55.9908V24.34H53.3908V28.6C53.3908 28.9733 53.4574 29.2467 53.5908 29.42C53.7374 29.5933 53.9641 29.68 54.2708 29.68H55.9908V32H54.0708ZM61.4814 32.16C60.6414 32.16 59.8947 32.0067 59.2414 31.7C58.6014 31.38 58.1014 30.94 57.7414 30.38C57.3814 29.8067 57.2014 29.1533 57.2014 28.42V25.84C57.2014 25.0533 57.3814 24.36 57.7414 23.76C58.1014 23.16 58.6014 22.6933 59.2414 22.36C59.8947 22.0267 60.6414 21.86 61.4814 21.86H63.0814C64.3614 21.86 65.3881 22.22 66.1614 22.94C66.9347 23.66 67.3214 24.62 67.3214 25.82V27.94H59.9214V28.42C59.9214 28.86 60.0614 29.2133 60.3414 29.48C60.6214 29.7467 61.0014 29.88 61.4814 29.88H63.0414C63.5081 29.88 63.8814 29.78 64.1614 29.58C64.4547 29.3667 64.6014 29.0933 64.6014 28.76H67.2814C67.2814 29.4267 67.1014 30.02 66.7414 30.54C66.3814 31.06 65.8747 31.46 65.2214 31.74C64.5814 32.02 63.8414 32.16 63.0014 32.16H61.4814ZM64.6414 25.98V25.82C64.6414 25.3 64.5014 24.8867 64.2214 24.58C63.9414 24.26 63.5681 24.1 63.1014 24.1H61.4814C61.0014 24.1 60.6147 24.2667 60.3214 24.6C60.0281 24.9333 59.8814 25.3733 59.8814 25.92V25.98H64.6414ZM69.1639 22.02H71.6839V23.3C71.9372 22.9133 72.2972 22.6 72.7639 22.36C73.2439 22.1067 73.7439 21.98 74.2639 21.98H75.6239V24.34H74.2639C73.5572 24.34 72.9839 24.5533 72.5439 24.98C72.1039 25.4067 71.8839 25.9533 71.8839 26.62V32H69.1639V22.02ZM86.1019 20.4H81.6619V18H93.3019V20.4H88.8619V32H86.1019V20.4ZM96.2466 32.16C95.4066 32.16 94.6599 32 94.0066 31.68C93.3666 31.3467 92.8666 30.88 92.5066 30.28C92.1599 29.68 91.9866 28.9867 91.9866 28.2V25.86C91.9866 25.0733 92.1666 24.38 92.5266 23.78C92.8866 23.1667 93.3866 22.6933 94.0266 22.36C94.6799 22.0267 95.4266 21.86 96.2666 21.86H98.0666C98.9066 21.86 99.6466 22.0267 100.287 22.36C100.94 22.6933 101.447 23.1667 101.807 23.78C102.167 24.38 102.347 25.0733 102.347 25.86V28.2C102.347 28.9867 102.167 29.68 101.807 30.28C101.447 30.88 100.94 31.3467 100.287 31.68C99.6466 32 98.8999 32.16 98.0466 32.16H96.2466ZM98.0066 29.82C98.4999 29.82 98.8932 29.6533 99.1866 29.32C99.4799 28.9733 99.6266 28.5267 99.6266 27.98V26.04C99.6266 25.4933 99.4799 25.0533 99.1866 24.72C98.8932 24.3733 98.5066 24.2 98.0266 24.2H96.3066C95.8266 24.2 95.4399 24.3733 95.1466 24.72C94.8532 25.0533 94.7066 25.4933 94.7066 26.04V27.98C94.7066 28.5267 94.8532 28.9733 95.1466 29.32C95.4399 29.6533 95.8199 29.82 96.2866 29.82H98.0066ZM106.887 32C105.994 32 105.421 31.48 105.167 30.44L103.147 22.02H105.967L107.187 28.36H107.227L109.407 22.26H110.467C110.774 22.26 111.021 22.3267 111.207 22.46C111.394 22.5933 111.541 22.8 111.647 23.08L113.507 28.36H113.547L114.747 22.02H117.567L115.587 30.44C115.347 31.48 114.774 32 113.867 32H112.627L110.407 25.68L108.107 32H106.887ZM122.653 32.16C121.813 32.16 121.067 32.0067 120.413 31.7C119.773 31.38 119.273 30.94 118.913 30.38C118.553 29.8067 118.373 29.1533 118.373 28.42V25.84C118.373 25.0533 118.553 24.36 118.913 23.76C119.273 23.16 119.773 22.6933 120.413 22.36C121.067 22.0267 121.813 21.86 122.653 21.86H124.253C125.533 21.86 126.56 22.22 127.333 22.94C128.107 23.66 128.493 24.62 128.493 25.82V27.94H121.093V28.42C121.093 28.86 121.233 29.2133 121.513 29.48C121.793 29.7467 122.173 29.88 122.653 29.88H124.213C124.68 29.88 125.053 29.78 125.333 29.58C125.627 29.3667 125.773 29.0933 125.773 28.76H128.453C128.453 29.4267 128.273 30.02 127.913 30.54C127.553 31.06 127.047 31.46 126.393 31.74C125.753 32.02 125.013 32.16 124.173 32.16H122.653ZM125.813 25.98V25.82C125.813 25.3 125.673 24.8867 125.393 24.58C125.113 24.26 124.74 24.1 124.273 24.1H122.653C122.173 24.1 121.787 24.2667 121.493 24.6C121.2 24.9333 121.053 25.3733 121.053 25.92V25.98H125.813ZM130.336 22.02H132.856V23.3C133.109 22.9133 133.469 22.6 133.936 22.36C134.416 22.1067 134.916 21.98 135.436 21.98H136.796V24.34H135.436C134.729 24.34 134.156 24.5533 133.716 24.98C133.276 25.4067 133.056 25.9533 133.056 26.62V32H130.336V22.02Z" fill="black"/>
<path d="M261.333 24.5C261.333 25.9728 262.527 27.1667 264 27.1667C265.473 27.1667 266.667 25.9728 266.667 24.5C266.667 23.0272 265.473 21.8333 264 21.8333C262.527 21.8333 261.333 23.0272 261.333 24.5ZM161 25H264V24H161V25Z" fill="white"/>
</svg>

<svg xmlns="http://www.w3.org/2000/svg" fill="none" viewBox="0 0 267 49"><rect fill="#fff" width="161" height="49" rx="24"/><path d="M27.18 32c-.573 0-1.04-.173-1.4-.52-.36-.347-.54-.8-.54-1.36V18h10.68v2.4H28v3.24h7.32v2.4H28v3.56h7.92V32h-8.74Zm10.539-9.98h2.52v1.2c.293-.413.673-.74 1.14-.98.466-.253.933-.38 1.4-.38h1.2c1.066 0 1.92.333 2.56 1 .653.667.98 1.547.98 2.64V32h-2.72v-6.4c0-.413-.114-.747-.34-1a1.045 1.045 0 0 0-.84-.38h-1.2c-.467 0-.887.173-1.26.52-.36.333-.6.773-.72 1.32V32h-2.72v-9.98ZM54.07 32c-1.174 0-2.034-.267-2.58-.8-.547-.533-.82-1.36-.82-2.48v-4.38h-1.76v-2.32h1.84V19h2.64v3.02h2.6v2.32h-2.6v4.26c0 .373.066.647.2.82.146.173.373.26.68.26h1.72V32h-1.92Zm7.41.16c-.84 0-1.586-.153-2.24-.46-.64-.32-1.14-.76-1.5-1.32-.36-.573-.54-1.227-.54-1.96v-2.58c0-.787.18-1.48.54-2.08.36-.6.86-1.067 1.5-1.4.654-.333 1.4-.5 2.24-.5h1.6c1.28 0 2.307.36 3.08 1.08.774.72 1.16 1.68 1.16 2.88v2.12h-7.4v.48c0 .44.14.793.42 1.06.28.267.66.4 1.14.4h1.56c.467 0 .84-.1 1.12-.3.294-.213.44-.487.44-.82h2.68c0 .667-.18 1.26-.54 1.78-.36.52-.866.92-1.52 1.2-.64.28-1.38.42-2.22.42h-1.52Zm3.16-6.18v-.16c0-.52-.14-.933-.42-1.24-.28-.32-.653-.48-1.12-.48h-1.62c-.48 0-.866.167-1.16.5-.293.333-.44.773-.44 1.32v.06h4.76Zm4.523-3.96h2.52v1.28c.253-.387.613-.7 1.08-.94.48-.253.98-.38 1.5-.38h1.36v2.36h-1.36c-.707 0-1.28.213-1.72.64-.44.427-.66.973-.66 1.64V32h-2.72v-9.98Zm16.938-1.62h-4.44V18h11.64v2.4h-4.44V32h-2.76V20.4Zm10.145 11.76c-.84 0-1.587-.16-2.24-.48-.64-.333-1.14-.8-1.5-1.4-.347-.6-.52-1.293-.52-2.08v-2.34c0-.787.18-1.48.54-2.08.36-.613.86-1.087 1.5-1.42.653-.333 1.4-.5 2.24-.5h1.8c.84 0 1.58.167 2.22.5a3.64 3.64 0 0 1 1.52 1.42c.36.6.54 1.293.54 2.08v2.34c0 .787-.18 1.48-.54 2.08a3.68 3.68 0 0 1-1.52 1.4c-.64.32-1.387.48-2.24.48h-1.8Zm1.76-2.34c.493 0 .886-.167 1.18-.5.293-.347.44-.793.44-1.34v-1.94c0-.547-.147-.987-.44-1.32-.294-.347-.68-.52-1.16-.52h-1.72c-.48 0-.867.173-1.16.52-.294.333-.44.773-.44 1.32v1.94c0 .547.146.993.44 1.34.293.333.673.5 1.14.5h1.72Zm8.88 2.18c-.893 0-1.466-.52-1.72-1.56l-2.02-8.42h2.82l1.22 6.34h.04l2.18-6.1h1.06c.307 0 .554.067.74.2.187.133.334.34.44.62l1.86 5.28h.04l1.2-6.34h2.82l-1.98 8.42c-.24 1.04-.813 1.56-1.72 1.56h-1.24l-2.22-6.32-2.3 6.32h-1.22Zm15.766.16c-.84 0-1.586-.153-2.24-.46-.64-.32-1.14-.76-1.5-1.32-.36-.573-.54-1.227-.54-1.96v-2.58c0-.787.18-1.48.54-2.08.36-.6.86-1.067 1.5-1.4.654-.333 1.4-.5 2.24-.5h1.6c1.28 0 2.307.36 3.08 1.08.774.72 1.16 1.68 1.16 2.88v2.12h-7.4v.48c0 .44.14.793.42 1.06.28.267.66.4 1.14.4h1.56c.467 0 .84-.1 1.12-.3.294-.213.44-.487.44-.82h2.68c0 .667-.18 1.26-.54 1.78-.36.52-.866.92-1.52 1.2-.64.28-1.38.42-2.22.42h-1.52Zm3.16-6.18v-.16c0-.52-.14-.933-.42-1.24-.28-.32-.653-.48-1.12-.48h-1.62c-.48 0-.866.167-1.16.5-.293.333-.44.773-.44 1.32v.06h4.76Zm4.523-3.96h2.52v1.28c.253-.387.613-.7 1.08-.94.48-.253.98-.38 1.5-.38h1.36v2.36h-1.36c-.707 0-1.28.213-1.72.64-.44.427-.66.973-.66 1.64V32h-2.72v-9.98Z" fill="#000"/><path d="M261.333 24.5a2.667 2.667 0 1 0 5.334 0 2.667 2.667 0 0 0-5.334 0ZM161 25h103v-1H161v1Z" fill="#fff"/></svg>
